client/src/assets/icons/real-estate-agent.svg

<svg width="58" height="58" viewBox="0 0 58 58" fill="none" xmlns="http://www.w3.org/2000/svg">
<path d="M15.4304 47.3256V31.0445H20.4571C20.6778 31.0445 20.9058 31.0671 21.141 31.1122C21.3762 31.1573 21.6042 31.2201 21.8249 31.3007L36.3757 36.6415C37.0942 36.9041 37.6871 37.3359 38.1543 37.9368C38.6199 38.5378 38.8527 39.2137 38.8527 39.9644C38.8527 40.4075 38.7077 40.7668 38.4178 41.0423C38.1278 41.3178 37.7709 41.4547 37.3472 41.4531H34.4423C33.6207 41.4531 32.8191 41.4048 32.0377 41.3081C31.2564 41.2114 30.4903 41.0294 29.7395 40.7619L25.4088 39.2056L24.7152 41.0036L29.4616 42.6348C30.222 42.8926 31.0082 43.0698 31.8202 43.1665C32.6322 43.2648 33.4547 43.3139 34.2877 43.3139H46.7528C47.8564 43.3139 48.7989 43.6764 49.5803 44.4014C50.3617 45.1264 50.7516 46.0343 50.75 47.125L33.8478 52.7027L15.4304 47.3256ZM5.76375 50.75V31.0445H13.0138V50.75H5.76375ZM34.0653 20.4015H36.018V18.4488H34.0653V20.4015ZM29.232 20.4015H31.1847V18.4488H29.232V20.4015ZM34.0653 25.2348H36.018V23.2822H34.0653V25.2348ZM29.232 25.2348H31.1847V23.2822H29.232V25.2348ZM40.6338 35.6918C40.2552 34.7348 39.6511 33.8768 38.8213 33.118C37.99 32.3592 36.8864 31.7284 35.5105 31.2258L19.3333 25.2808H16.9167V17.6175L32.625 6.41626L48.3333 17.6151V35.6918H40.6338Z" fill="#011034"/>
</svg>

<svg xmlns="http://www.w3.org/2000/svg" width="58" height="58" fill="none" viewBox="0 0 58 58">
  <path fill="#011034" d="M15.43 47.326V31.044h5.027c.22 0 .449.023.684.068.235.045.463.108.684.189l14.55 5.34a3.908 3.908 0 0 1 1.78 1.296c.465.6.698 1.277.698 2.027 0 .444-.145.803-.435 1.078-.29.276-.647.413-1.07.411h-2.906a19.5 19.5 0 0 1-2.404-.145 10.769 10.769 0 0 1-2.298-.546l-4.331-1.556-.694 1.798 4.747 1.63c.76.259 1.546.436 2.358.532.812.099 1.635.148 2.468.148h12.465c1.103 0 2.046.362 2.827 1.087.782.725 1.172 1.633 1.17 2.724l-16.902 5.578-18.418-5.377ZM5.764 50.75V31.044h7.25V50.75h-7.25Zm28.301-30.349h1.953V18.45h-1.953v1.95Zm-4.833 0h1.953V18.45h-1.953v1.95Zm4.833 4.834h1.953v-1.953h-1.953v1.953Zm-4.833 0h1.953v-1.953h-1.953v1.953Zm11.402 10.457c-.379-.957-.983-1.815-1.813-2.574-.831-.759-1.935-1.39-3.31-1.892L19.332 25.28h-2.416v-7.663L32.625 6.415l15.708 11.2v18.076h-7.7Z"/>
</svg>
